packages/ffe-icons/icons/open/400/sm/low_priority.svg

<svg xmlns="http://www.w3.org/2000/svg" height="20" viewBox="0 -960 960 960" width="20"><path d="M168-546q0 72.642 50.5 124.821T341-367l-25-26q-11-11-10.5-25t11.5-25q11-11 25-11t25 11l88 88q11 10.636 11 24.818Q466-316 455-305l-88 88q-11 11-25 10.5T317-218q-11-11-11-25.5t11-25.5l26-26q-103-2-175-75T96-546q0-105 73.5-178.5T347.828-798H444q15.3 0 25.65 10.289 10.35 10.29 10.35 25.5Q480-747 469.65-736.5 459.3-726 444-726h-96q-75 0-127.5 52.291Q168-621.419 168-546Zm443.96 180h215.757Q843-366 853.5-355.711q10.5 10.29 10.5 25.5Q864-315 853.662-304.5 843.323-294 828.04-294H612.283Q597-294 586.5-304.289q-10.5-10.29-10.5-25.5Q576-345 586.338-355.5 596.677-366 611.96-366Zm0-216h215.757Q843-582 853.5-571.711q10.5 10.29 10.5 25.5Q864-531 853.662-520.5 843.323-510 828.04-510H612.283Q597-510 586.5-520.289q-10.5-10.29-10.5-25.5Q576-561 586.338-571.5 596.677-582 611.96-582Zm0-216h215.757Q843-798 853.5-787.711q10.5 10.29 10.5 25.5Q864-747 853.662-736.5 843.323-726 828.04-726H612.283Q597-726 586.5-736.289q-10.5-10.29-10.5-25.5Q576-777 586.338-787.5 596.677-798 611.96-798Z"/></svg>

<svg xmlns="http://www.w3.org/2000/svg" height="20" viewBox="0 -960 960 960" width="20"><path d="M168-546q0 72.64 50.5 124.82Q269-369 341-367l-25-26q-11-11-10.5-25t11.5-25q11-11 25-11t25 11l88 88q11 10.64 11 24.82T455-305l-88 88q-11 11-25 10.5T317-218q-11-11-11-25.5t11-25.5l26-26q-103-2-175-75T96-546q0-105 73.5-178.5T347.83-798H444q15.3 0 25.65 10.29Q480-777.42 480-762.21t-10.35 25.71Q459.3-726 444-726h-96q-75 0-127.5 52.29T168-546Zm443.96 180h215.76q15.28 0 25.78 10.29 10.5 10.29 10.5 25.5t-10.34 25.71Q843.32-294 828.04-294H612.28q-15.28 0-25.78-10.29-10.5-10.29-10.5-25.5t10.34-25.71q10.34-10.5 25.62-10.5Zm0-216h215.76q15.28 0 25.78 10.29 10.5 10.29 10.5 25.5t-10.34 25.71Q843.32-510 828.04-510H612.28q-15.28 0-25.78-10.29-10.5-10.29-10.5-25.5t10.34-25.71q10.34-10.5 25.62-10.5Zm0-216h215.76q15.28 0 25.78 10.29 10.5 10.29 10.5 25.5t-10.34 25.71Q843.32-726 828.04-726H612.28q-15.28 0-25.78-10.29-10.5-10.29-10.5-25.5t10.34-25.71q10.34-10.5 25.62-10.5Z"/></svg>
